svgs/light/jedi.svg

<svg xmlns="http://www.w3.org/2000/svg" viewBox="0 0 576 512"><!--! Font Awesome Pro 6.3.0 by @fontawesome - https://fontawesome.com License - https://fontawesome.com/license (Commercial License) Copyright 2023 Fonticons, Inc. --><path d="M445.3 20.45C441.2 17.57 436.5 16 431.6 16c-8 0-15.37 4-19.87 10.62c-4.5 6.5-5.335 14.83-2.46 22.33c6 14.75 8.958 30.67 8.958 46.67c0 41.13-19.21 78.88-52.58 103.6c-5.873 4.375-9.458 10.96-9.833 18.33c-.375 7.25 2.667 14.29 8.042 19.17C387.6 257.9 401.2 288.3 401.1 320c0 22.12-13.54 99-97.04 110.3v-71.63l20.75 20.75c6.125 6.125 16.25 6.125 22.5-.125c6.25-6.125 6.25-16.25 .125-22.5L326.6 336h25.37c8.875 0 15.1-7.125 15.1-16s-7.123-16-15.1-16h-25.37l20.75-20.75c6.125-6.125 6.125-16.25-.125-22.5c-6.125-6.25-16.25-6.25-22.5 0l-20.75 20.62V16c0-8.875-7.168-16-16.04-16c-8.873 0-15.95 7.125-15.95 16v265.4L251.4 260.6c-6.25-6.25-16.5-6.25-22.75 0C222.4 266.9 222.5 277.1 228.8 283.3L249.4 304H224c-8.875 0-16 7.125-16 16s7.125 16 16 16h25.37L228.8 356.8c-6.25 6.125-6.375 16.38-.125 22.62c6.248 6.25 16.5 6.25 22.75-.125l20.62-20.62v71.63C217.3 422.4 174.9 376.5 174.9 320c0-31.88 13.44-62.13 37.19-83.25c5.375-4.875 8.375-11.88 8-19.12s-4-13.96-9.75-18.33C176.8 174.5 157.7 136.8 157.7 95.63c0-16 3-31.75 8.875-46.63c3-7.375 2-15.71-2.375-22.33C159.7 20.04 152.2 16.17 144.3 16.04c-5 0-9.735 1.58-13.74 4.455C54.74 74.12 11.98 161.4 16.23 254C22.73 394.8 141.6 512 287.1 512c149.1 0 272-121.5 272-270.8C559.9 153.4 517.1 71.2 445.3 20.45zM288 480c-145.2 0-227.2-117.6-238.1-211.1L85.45 300c6.625 5.875 16.75 5.125 22.5-1.5S113.1 281.8 106.4 276L48.54 225.3c1-12.25 2.875-24.5 5.625-36.5L84.57 219.2c6.25 6.25 16.37 6.313 22.62 .0625s6.25-16.5 0-22.63L64.79 154.1c13.87-35.38 35.1-66.88 64.49-91.88C127.2 73.13 125.9 84.38 125.8 95.5C125.5 143.4 147 189 184 219.4c-26.25 26.75-40.1 62.63-41.12 100c0 79.63 65.12 144.5 145.1 144.5c72.12 0 144.9-56 144.1-143.9c.125-37.63-14.62-73.88-40.1-100.6c36.1-30.38 58.37-75.88 58.24-123.8c0-11.25-1.125-22.38-3.5-33.38c28.37 25.12 50.5 56.63 64.37 92l-42.51 42.5c-6.25 6.25-6.25 16.37 0 22.5c6.248 6.25 16.37 6.25 22.62 0l30.76-30.62c2.625 12.12 4.375 24.5 5.123 36.88L469.5 276c-6.75 5.75-7.375 15.88-1.625 22.5c5.873 6.625 15.1 7.375 22.62 1.5l35.76-31.25C512.5 387.5 411 480 288 480z"/></svg>

<svg xmlns="http://www.w3.org/2000/svg" viewBox="0 0 576 512"><!-- Font Awesome Pro 6.0.0-alpha2 by @fontawesome - https://fontawesome.com License - https://fontawesome.com/license (Commercial License) --><path d="M445.385 20.375C441.26 17.5 436.51 16 431.635 16C423.635 16 416.262 20 411.762 26.625C407.262 33.125 406.387 41.5 409.262 49C415.262 63.75 418.262 79.625 418.262 95.625C418.262 136.75 399.137 174.5 365.764 199.25C359.891 203.625 356.266 210.25 355.891 217.625C355.516 224.875 358.516 231.875 363.891 236.75C387.639 257.875 401.137 288.25 401.012 320C401.012 342.125 387.514 419 304.02 430.25V358.625L324.768 379.375C330.893 385.5 341.016 385.5 347.266 379.25C353.516 373.125 353.516 363 347.391 356.75L326.643 336H352.016C360.891 336 368.014 328.875 368.014 320S360.891 304 352.016 304H326.643L347.391 283.25C353.516 277.125 353.516 267 347.266 260.75C341.141 254.5 331.018 254.5 324.768 260.75L304.02 281.375V16C304.02 7.125 296.895 0 288.02 0C279.147 0 272.022 7.125 272.022 16V281.375L251.399 260.625C245.149 254.375 234.899 254.375 228.651 260.625C222.401 266.875 222.526 277.125 228.776 283.25L249.399 304H224.026C215.151 304 208.026 311.125 208.026 320S215.151 336 224.026 336H249.399L228.776 356.75C222.526 362.875 222.401 373.125 228.651 379.375C234.899 385.625 245.149 385.625 251.399 379.25L272.022 358.625V430.25C217.276 422.375 174.905 376.5 174.905 320C174.905 288.125 188.403 257.875 212.151 236.75C217.526 231.875 220.526 224.875 220.151 217.625S216.151 203.625 210.401 199.25C176.905 174.5 157.78 136.75 157.78 95.625C157.78 79.625 160.78 63.875 166.655 49C169.655 41.625 168.655 33.25 164.28 26.625C159.78 20 152.28 16.125 144.406 16C139.406 16 134.656 17.625 130.656 20.5C54.787 74.125 12.041 161.375 16.289 254C22.789 394.75 141.656 512 288.02 512C438.01 512 560 390.5 560 241.25C559.875 153.375 517.129 71.125 445.385 20.375ZM288.02 480C142.781 480 60.787 362.375 49.912 268.875L85.535 300C92.16 305.875 102.283 305.125 108.033 298.5S113.158 281.75 106.533 276L48.537 225.25C49.537 213 51.412 200.75 54.162 188.75L84.66 219.25C90.91 225.5 101.033 225.5 107.283 219.25S113.533 202.875 107.283 196.75L64.787 154.125C78.66 118.75 100.783 87.25 129.281 62.25C127.156 73.125 125.906 84.375 125.781 95.5V95.625C125.531 143.5 147.031 189 184.028 219.375C157.78 246.125 143.031 282 142.906 319.375C142.906 399 208.026 463.875 288.02 463.875C360.141 463.875 432.885 407.875 433.01 320C433.135 282.375 418.387 246.125 392.014 219.375C429.01 189 450.383 143.5 450.258 95.625C450.258 84.375 449.133 73.25 446.758 62.25C475.131 87.375 497.256 118.875 511.129 154.25L468.633 196.75C462.383 203 462.383 213.125 468.633 219.25C474.881 225.5 485.006 225.5 491.256 219.25L522.004 188.625C524.629 200.75 526.379 213.125 527.127 225.5L469.508 276C462.758 281.75 462.133 291.875 467.883 298.5C473.756 305.125 483.881 305.875 490.506 300L526.254 268.75C512.504 387.5 411.012 480 288.02 480Z"/></svg>
